X: 110
T:The Maids of Ardagh
N: page 37
N: heptatonic
R: polka
M:2/4
L:1/8
K:D
"D"AB/A/ FA |de f2|"A7"f e/f/ gc|"D"ed BA|\
A B/A/ FA|de f2| "A"f e/f/ gc|"D"ed d2::
"A"e f/e/ ce|fe a2|e f/e/ ce| "A"fe c/B/ A|\
e f/e/ ce|fe a2|"E7"e f/e/ dB|"A"BA A2:|
